X:1
T:Craigenroan
T:Craigenroan
T:Alexander Walker
C:Alexander Walker
L:1/8
M:4/4
K:C
V:1 treble 
V:1
 B | c2 ed cAAc | AcGc d3 e | c2 ed cAAc | GEcE (D2 C) :| G | c2 ec BGGB | cedc dAAB | c2 ec defa | %9
 gfed cAAG | c2 ec BGGB | cedc dAAB | c2 ed cdea | gec'e{e} (d2 c) || %14

